X:4167
T:Dingle Regatta
R:Jig
O:Ireland
M:6/8
K:G
d^cd e2d|BAB d2B|A2A AGA|B2A G2d|\
d^cd e2d|BAB d2B|A2A ABA|G3 G2::
d3 def|g2g gfg|a2a aga|b2a g2e|\
d2d def|g2g gfg|a2g f2e|def g3::
g3 d3|BdB G3|ABA DEF|G2B def|\
g3 d3|BdB G2d|ABA DEF|G3 G3:|
